icons-dark/actions/22/edit-image-face-detect.svg

<svg xmlns="http://www.w3.org/2000/svg" viewBox="0 0 22 22">
  <defs id="defs3051">
    <style type="text/css" id="current-color-scheme">
      .ColorScheme-Text {
        color:#f2f2f2
      }
      </style>
  </defs>
 <path 
    style="fill:currentColor;fill-opacity:1;stroke:none" 
	d="m3 3v1 15h1 15v-1-15h-16m1 1h14v14h-14v-14m1 1v1 2h1v-2h2v-1h-3m9 0v1h2v2h1v-2-1h-3m-6 2c-.554 0-1 .446-1 1 0 .554.446 1 1 1 .554 0 1-.446 1-1 0-.554-.446-1-1-1m6 0c-.554 0-1 .446-1 1 0 .554.446 1 1 1 .554 0 1-.446 1-1 0-.554-.446-1-1-1m-6.871094 4.966797l-.964844.242187c.54051 2.178456 2.485695 3.791016 4.835938 3.791016 2.350243 0 4.295426-1.61256 4.835938-3.791016l-.964844-.242187c-.431884 1.743522-1.990365 3.033203-3.871094 3.033203-1.880729 0-3.43921-1.289681-3.871094-3.033203m-2.128906 2.033203v2 1h3v-1h-2v-2h-1m11 0v2h-2v1h3v-1-2h-1"
    class="ColorScheme-Text"
    />  
</svg>

<?xml version="1.0" encoding="UTF-8" standalone="no"?>
<!-- Created with Inkscape (http://www.inkscape.org/) -->

<svg
   xmlns:dc="http://purl.org/dc/elements/1.1/"
   xmlns:cc="http://creativecommons.org/ns#"
   xmlns:rdf="http://www.w3.org/1999/02/22-rdf-syntax-ns#"
   xmlns:svg="http://www.w3.org/2000/svg"
   xmlns="http://www.w3.org/2000/svg"
   xmlns:sodipodi="http://sodipodi.sourceforge.net/DTD/sodipodi-0.dtd"
   xmlns:inkscape="http://www.inkscape.org/namespaces/inkscape"
   width="22"
   height="22"
   id="svg3979"
   version="1.1"
   inkscape:version="0.48+devel r"
   sodipodi:docname="edit-image-face-detect.svg">
  <defs
     id="defs3981" />
  <sodipodi:namedview
     id="base"
     pagecolor="#ffffff"
     bordercolor="#666666"
     borderopacity="1.0"
     inkscape:pageopacity="0.0"
     inkscape:pageshadow="2"
     inkscape:zoom="24.913334"
     inkscape:cx="7.2740151"
     inkscape:cy="10.580651"
     inkscape:document-units="px"
     inkscape:current-layer="layer1"
     showgrid="true"
     fit-margin-top="0"
     fit-margin-left="0"
     fit-margin-right="0"
     fit-margin-bottom="0"
     inkscape:window-width="1366"
     inkscape:window-height="668"
     inkscape:window-x="-2"
     inkscape:window-y="23"
     inkscape:window-maximized="1"
     inkscape:showpageshadow="false"
     showguides="true">
    <inkscape:grid
       type="xygrid"
       id="grid4125" />
    <sodipodi:guide
       position="2.0000144,19.99997"
       orientation="18,0"
       id="guide4131" />
    <sodipodi:guide
       position="2.0000144,1.9999696"
       orientation="0,18"
       id="guide4133" />
    <sodipodi:guide
       position="20.000014,1.9999696"
       orientation="-18,0"
       id="guide4135" />
    <sodipodi:guide
       position="20.000014,19.99997"
       orientation="0,-18"
       id="guide4137" />
    <sodipodi:guide
       position="3.0000144,18.99997"
       orientation="16,0"
       id="guide4139" />
    <sodipodi:guide
       position="3.0000144,2.9999696"
       orientation="0,16"
       id="guide4141" />
    <sodipodi:guide
       position="19.000014,2.9999696"
       orientation="-16,0"
       id="guide4143" />
    <sodipodi:guide
       position="19.000014,18.99997"
       orientation="0,-16"
       id="guide4145" />
  </sodipodi:namedview>
  <metadata
     id="metadata3984">
    <rdf:RDF>
      <cc:Work
         rdf:about="">
        <dc:format>image/svg+xml</dc:format>
        <dc:type
           rdf:resource="http://purl.org/dc/dcmitype/StillImage" />
        <dc:title />
      </cc:Work>
    </rdf:RDF>
  </metadata>
  <g
     inkscape:label="Capa 1"
     inkscape:groupmode="layer"
     id="layer1"
     transform="translate(-601.71428,-517.21933)">
    <path
       style="opacity:1;fill:#f2f2f2;fill-opacity:1;stroke:none"
       d="M 3 3 L 3 4 L 3 19 L 4 19 L 19 19 L 19 18 L 19 3 L 3 3 z M 4 4 L 18 4 L 18 18 L 4 18 L 4 4 z M 5 5 L 5 6 L 5 8 L 6 8 L 6 6 L 8 6 L 8 5 L 5 5 z M 14 5 L 14 6 L 16 6 L 16 8 L 17 8 L 17 6 L 17 5 L 14 5 z M 8 7 C 7.446 7 7 7.446 7 8 C 7 8.554 7.446 9 8 9 C 8.554 9 9 8.554 9 8 C 9 7.446 8.554 7 8 7 z M 14 7 C 13.446 7 13 7.446 13 8 C 13 8.554 13.446 9 14 9 C 14.554 9 15 8.554 15 8 C 15 7.446 14.554 7 14 7 z M 7.1289062 11.966797 L 6.1640625 12.208984 C 6.7045728 14.38744 8.6497572 16 11 16 C 13.350243 16 15.295426 14.38744 15.835938 12.208984 L 14.871094 11.966797 C 14.43921 13.710319 12.880729 15 11 15 C 9.1192705 15 7.5607901 13.710319 7.1289062 11.966797 z M 5 14 L 5 16 L 5 17 L 8 17 L 8 16 L 6 16 L 6 14 L 5 14 z M 16 14 L 16 16 L 14 16 L 14 17 L 17 17 L 17 16 L 17 14 L 16 14 z "
       transform="translate(601.71428,517.21933)"
       id="rect4108" />
  </g>
</svg>
